svg/u1f9ba.svg

<svg viewBox="0 0 128 128" xmlns="http://www.w3.org/2000/svg">
  <linearGradient id="c" gradientUnits="userSpaceOnUse" x1="64.922" x2="64.922" y1="20.609" y2="56.505">
    <stop offset="0" stop-color="#E65100"/>
    <stop offset="1" stop-color="#BF360C"/>
  </linearGradient>
  <path d="m52 6.61h24s4.12 48.67 2.79 48.67h-28l1.21-48.67z" fill="url(#c)"/>
  <linearGradient id="b" gradientUnits="userSpaceOnUse" x1="64" x2="64" y1="6.6087" y2="112.67">
    <stop offset=".0032478" stop-color="#FF9100"/>
    <stop offset="1" stop-color="#FF6D00"/>
  </linearGradient>
  <path d="m104 40c-4.37-12.24-4-30-4-30l-24-3.39-12 47.39-12-47.39-24 3.39s0.37 17.76-4 30c-5 14-12 22-12 22v56.3c0 2.04 1.66 3.7 3.7 3.7h36.3c11 0 12-10 12-10s1 10 12 10h36.3c2.04 0 3.7-1.66 3.7-3.7v-56.3s-7-8-12-22z" fill="url(#b)"/>
  <linearGradient id="a" gradientUnits="userSpaceOnUse" x1="64" x2="64" y1="83.75" y2="7.7083">
    <stop offset="0" stop-color="#E0E0E0"/>
    <stop offset="1" stop-color="#BFBFBF"/>
  </linearGradient>
  <polygon fill="url(#a)" points="116 76 92 76 92 8.87 84 7.71 84 76 44 76 44 7.74 36 8.87 36 76 12 76 12 83.75 116 83.75"/>
  <rect fill="#E0E0E0" height="104" transform="matrix(6.1232e-17 -1 1 6.1232e-17 -32 160)" width="8" x="60" y="44"/>
  <path d="m26.66 41.42c3.4-9.45 4.31-27.6 3.97-31.79l-2.63 0.37s0.37 17.76-4 30c-5 14-12 22-12 22v3.58s7.86-5.25 14.66-24.16z" fill="#616161"/>
  <path d="M62.5,106c0,3.68-1.42,13-10.51,13l-39.88,0.13c0.26,1.14,1.28,2.87,3.97,2.87H52c11,0,12-10,12-10 v-6H62.5z" fill="#616161"/>
  <polygon fill="#616161" points="49.14 7.01 64 63.81 64 54 52 6.61"/>
  <line fill="none" stroke="#616161" stroke-miterlimit="10" stroke-width="3" x1="64" x2="64" y1="55.28" y2="109.83"/>
  <path d="m101.34 41.42c-3.4-9.45-4.31-27.6-3.97-31.79l2.63 0.37s-0.37 17.76 4 30c5 14 12 22 12 22v3.58s-7.86-5.25-14.66-24.16z" fill="#616161"/>
  <path d="M65.5,106c0,3.68,1.42,13,10.51,13l39.88,0.13c-0.26,1.14-1.28,2.87-3.97,2.87H76 c-11,0-12-10-12-10v-6H65.5z" fill="#616161"/>
  <polygon fill="#616161" points="78.86 7.01 64 63.81 64 54 76 6.61"/>
  <path d="m76.87 8.85c-2.4-0.46-7.27-1.24-12.87-1.24-4.76 0-12.91 1.23-12.99 1.24l-0.71-2c0.33-0.04 8.82-1.24 13.7-1.24 5.77 0 10.84 0.77 13.3 1.18l-0.43 2.06z" fill="#616161"/>
  <g opacity=".2">
    <path d="m64.65 8.66c6.26 0 10.72 0.88 10.76 0.89 0.06 0.01 0.12 0.02 0.17 0.03l21.42 3.03c0.08 5.54 0.65 18.53 4.17 28.4 4.24 11.85 9.83 19.54 11.83 22.06v55.23c0 0.39-0.31 0.7-0.7 0.7h-36.3c-3.45 0-5.9-1.14-7.5-3.47-1.27-1.86-1.51-3.83-1.51-3.83-0.15-1.53-1.44-2.7-2.99-2.7s-2.83 1.17-2.99 2.7c0 0.02-0.23 1.86-1.41 3.66-1.58 2.45-4.07 3.64-7.6 3.64h-36.3c-0.39 0-0.7-0.31-0.7-0.7v-55.23c2-2.53 7.59-10.22 11.83-22.06 3.53-9.87 4.1-22.86 4.17-28.4l21.43-3.03c0.06-0.01 6.08-0.87 11.66-0.91l0.56-0.01m0-3h-0.58c-5.87 0.06-12.07 0.95-12.07 0.95l-24 3.39s0.37 17.76-4 30c-5 14-12 22-12 22v56.3c0 2.04 1.66 3.7 3.7 3.7h36.3c11 0 12-10 12-10s1 10 12 10h36.3c2.04 0 3.7-1.66 3.7-3.7v-56.3s-7-8-12-22c-4.37-12.24-4-30-4-30l-24-3.39s-4.68-0.95-11.35-0.95z" fill="#424242"/>
  </g>
</svg>

<svg viewBox="0 0 128 128" xmlns="http://www.w3.org/2000/svg" xmlns:xlink="http://www.w3.org/1999/xlink">
  <g id="Layer_4">
    <g>
      <linearGradient id="SVGID_2_" gradientUnits="userSpaceOnUse" x1="64.9224" x2="64.9224" y1="20.6087" y2="56.5046">
        <stop offset="0" style="stop-color:#E65100"/>
        <stop offset="1" style="stop-color:#BF360C"/>
      </linearGradient>
      <path d="M52,6.61l24,0c0,0,4.12,48.67,2.79,48.67c-1.33,0-28,0-28,0L52,6.61z" fill="url(#SVGID_2_)"/>
      <linearGradient id="SVGID_3_" gradientUnits="userSpaceOnUse" x1="64" x2="64" y1="6.6087" y2="112.6688">
        <stop offset="3.247793e-03" style="stop-color:#FF9100"/>
        <stop offset="1" style="stop-color:#FF6D00"/>
      </linearGradient>
      <path d="M104,40c-4.37-12.24-4-30-4-30L76,6.61L64,54L52,6.61L28,10c0,0,0.37,17.76-4,30c-5,14-12,22-12,22 v56.3c0,2.04,1.66,3.7,3.7,3.7H52c11,0,12-10,12-10s1,10,12,10h36.3c2.04,0,3.7-1.66,3.7-3.7V62C116,62,109,54,104,40z" fill="url(#SVGID_3_)"/>
      <linearGradient id="SVGID_4_" gradientUnits="userSpaceOnUse" x1="64" x2="64" y1="83.7499" y2="7.7083">
        <stop offset="0" style="stop-color:#E0E0E0"/>
        <stop offset="1" style="stop-color:#BFBFBF"/>
      </linearGradient>
      <polygon fill="url(#SVGID_4_)" points="116,76 92,76 92,8.87 84,7.71 84,76 44,76 44,7.74 36,8.87 36,76 12,76 12,83.75 116,83.75 "/>
      <rect fill="#E0E0E0" height="104" transform="matrix(6.123234e-17 -1 1 6.123234e-17 -32 160)" width="8" x="60" y="44"/>
      <path d="M26.66,41.42c3.4-9.45,4.31-27.6,3.97-31.79L28,10c0,0,0.37,17.76-4,30c-5,14-12,22-12,22v3.58 C12,65.58,19.86,60.33,26.66,41.42z" fill="#616161"/>
      <path d="M62.5,106c0,3.68-1.42,13-10.51,13l-39.88,0.13c0.26,1.14,1.28,2.87,3.97,2.87H52c11,0,12-10,12-10v-6 H62.5z" fill="#616161"/>
      <polygon fill="#616161" points="49.14,7.01 64,63.81 64,54 52,6.61 "/>
      <line fill="none" stroke="#616161" stroke-miterlimit="10" stroke-width="3" x1="64" x2="64" y1="55.28" y2="109.83"/>
      <path d="M101.34,41.42c-3.4-9.45-4.31-27.6-3.97-31.79L100,10c0,0-0.37,17.76,4,30c5,14,12,22,12,22v3.58 C116,65.58,108.14,60.33,101.34,41.42z" fill="#616161"/>
      <path d="M65.5,106c0,3.68,1.42,13,10.51,13l39.88,0.13c-0.26,1.14-1.28,2.87-3.97,2.87H76c-11,0-12-10-12-10v-6 H65.5z" fill="#616161"/>
      <polygon fill="#616161" points="78.86,7.01 64,63.81 64,54 76,6.61 "/>
      <path d="M76.87,8.85C74.47,8.39,69.6,7.61,64,7.61c-4.76,0-12.91,1.23-12.99,1.24l-0.71-2 c0.33-0.04,8.82-1.24,13.7-1.24c5.77,0,10.84,0.77,13.3,1.18L76.87,8.85z" fill="#616161"/>
      <g opacity="0.2">
        <path d="M64.65,8.66c6.26,0,10.72,0.88,10.76,0.89c0.06,0.01,0.12,0.02,0.17,0.03L97,12.61 c0.08,5.54,0.65,18.53,4.17,28.4C105.41,52.86,111,60.55,113,63.07v55.23c0,0.39-0.31,0.7-0.7,0.7H76c-3.45,0-5.9-1.14-7.5-3.47 c-1.27-1.86-1.51-3.83-1.51-3.83l0,0c-0.15-1.53-1.44-2.7-2.99-2.7s-2.83,1.17-2.99,2.7c0,0.02-0.23,1.86-1.41,3.66 C58.02,117.81,55.53,119,52,119H15.7c-0.39,0-0.7-0.31-0.7-0.7V63.07c2-2.53,7.59-10.22,11.83-22.06 c3.53-9.87,4.1-22.86,4.17-28.4l21.43-3.03c0.06-0.01,6.08-0.87,11.66-0.91L64.65,8.66 M64.65,5.66c-0.19,0-0.39,0-0.58,0 C58.2,5.72,52,6.61,52,6.61L28,10c0,0,0.37,17.76-4,30c-5,14-12,22-12,22v56.3c0,2.04,1.66,3.7,3.7,3.7H52c11,0,12-10,12-10 s1,10,12,10h36.3c2.04,0,3.7-1.66,3.7-3.7V62c0,0-7-8-12-22c-4.37-12.24-4-30-4-30L76,6.61C76,6.61,71.32,5.66,64.65,5.66 L64.65,5.66z" fill="#424242"/>
      </g>
    </g>
  </g>
</svg>
